assets/svg/games_sort.svg

<svg width="50" height="50" viewBox="0 0 50 50" fill="none" xmlns="http://www.w3.org/2000/svg">
<path d="M0 14.6552V2.58621C0 1.9003 0.272475 1.24249 0.757482 0.757482C1.24249 0.272475 1.9003 0 2.58621 0H14.819C15.827 0.000211658 16.8032 0.353752 17.5776 0.999138L20.3517 3.31121C21.1266 3.95697 22.1034 4.31054 23.1121 4.31034H47.4138C48.0997 4.31034 48.7575 4.58282 49.2425 5.06783C49.7275 5.55284 50 6.21065 50 6.89655V14.6552H0Z" fill="#E58B0A"/>
<path d="M4.31036 12.931V10.3448C4.31036 9.65892 4.58284 9.00111 5.06785 8.5161C5.55285 8.0311 6.21067 7.75862 6.89657 7.75862H43.1035C43.7894 7.75862 44.4472 8.0311 44.9322 8.5161C45.4172 9.00111 45.6897 9.65892 45.6897 10.3448V12.931H4.31036Z" fill="white"/>
<path d="M47.4138 12.069H2.58621C1.15788 12.069 0 13.2268 0 14.6552V42.2414C0 43.6697 1.15788 44.8276 2.58621 44.8276H47.4138C48.8421 44.8276 50 43.6697 50 42.2414V14.6552C50 13.2268 48.8421 12.069 47.4138 12.069Z" fill="#FFB90B"/>
<path d="M16.6078 40.5172C16.2815 40.5173 15.9619 40.6098 15.6862 40.7843C15.4104 40.9587 15.1898 41.2078 15.05 41.5026L12.1681 47.5767C11.8435 48.2976 11.3179 48.9096 10.6544 49.3394C9.99078 49.7692 9.21735 49.9986 8.42674 50C7.86992 49.9979 7.31928 49.8832 6.80788 49.663C6.29648 49.4427 5.83488 49.1213 5.45081 48.7182C5.06673 48.315 4.76811 47.8384 4.57287 47.3169C4.37763 46.7954 4.2898 46.2399 4.31467 45.6836C4.78881 34.7836 7.03794 27.5534 8.88363 23.8121C9.47003 22.6174 10.3794 21.611 11.5086 20.9067C12.6377 20.2025 13.9416 19.8286 15.2724 19.8276H34.7276C36.058 19.8291 37.3613 20.2032 38.49 20.9074C39.6187 21.6116 40.5276 22.6178 41.1138 23.8121C42.9621 27.5534 45.2112 34.7836 45.6828 45.6836C45.7076 46.2397 45.6199 46.795 45.4248 47.3163C45.2297 47.8376 44.9313 48.3141 44.5475 48.7172C44.1637 49.1204 43.7024 49.4418 43.1913 49.6622C42.6803 49.8826 42.1299 49.9975 41.5733 50C40.7827 49.9986 40.0092 49.7692 39.3457 49.3394C38.6821 48.9096 38.1565 48.2976 37.8319 47.5767L34.95 41.5026C34.8102 41.2078 34.5896 40.9587 34.3139 40.7843C34.0381 40.6098 33.7185 40.5173 33.3923 40.5172H16.6078Z" fill="#394263"/>
<path d="M18.1035 27.5862H15.5173V25C15.5173 24.7714 15.4264 24.5521 15.2648 24.3904C15.1031 24.2288 14.8838 24.1379 14.6552 24.1379C14.4266 24.1379 14.2073 24.2288 14.0456 24.3904C13.8839 24.5521 13.7931 24.7714 13.7931 25V27.5862H11.2069C10.9783 27.5862 10.759 27.677 10.5973 27.8387C10.4357 28.0004 10.3448 28.2196 10.3448 28.4483C10.3448 28.6769 10.4357 28.8962 10.5973 29.0579C10.759 29.2195 10.9783 29.3103 11.2069 29.3103H13.7931V31.8966C13.7931 32.1252 13.8839 32.3445 14.0456 32.5061C14.2073 32.6678 14.4266 32.7586 14.6552 32.7586C14.8838 32.7586 15.1031 32.6678 15.2648 32.5061C15.4264 32.3445 15.5173 32.1252 15.5173 31.8966V29.3103H18.1035C18.3321 29.3103 18.5514 29.2195 18.713 29.0579C18.8747 28.8962 18.9655 28.6769 18.9655 28.4483C18.9655 28.2196 18.8747 28.0004 18.713 27.8387C18.5514 27.677 18.3321 27.5862 18.1035 27.5862Z" fill="#232944"/>
<path d="M35.3449 32.7586C35.1162 32.7586 34.897 32.6678 34.7353 32.5061C34.5736 32.3445 34.4828 32.1252 34.4828 31.8965V31.0345C34.4828 30.8058 34.5736 30.5866 34.7353 30.4249C34.897 30.2632 35.1162 30.1724 35.3449 30.1724C35.5735 30.1724 35.7928 30.2632 35.9544 30.4249C36.1161 30.5866 36.2069 30.8058 36.2069 31.0345V31.8965C36.2069 32.1252 36.1161 32.3445 35.9544 32.5061C35.7928 32.6678 35.5735 32.7586 35.3449 32.7586Z" fill="#E23D4A"/>
<path d="M35.3449 26.7241C35.1162 26.7241 34.897 26.6333 34.7353 26.4716C34.5736 26.31 34.4828 26.0907 34.4828 25.8621V25C34.4828 24.7714 34.5736 24.5521 34.7353 24.3904C34.897 24.2288 35.1162 24.1379 35.3449 24.1379C35.5735 24.1379 35.7928 24.2288 35.9544 24.3904C36.1161 24.5521 36.2069 24.7714 36.2069 25V25.8621C36.2069 26.0907 36.1161 26.31 35.9544 26.4716C35.7928 26.6333 35.5735 26.7241 35.3449 26.7241Z" fill="#FFB90B"/>
<path d="M38.7931 29.3103H37.931C37.7024 29.3103 37.4831 29.2195 37.3215 29.0578C37.1598 28.8962 37.069 28.6769 37.069 28.4483C37.069 28.2196 37.1598 28.0004 37.3215 27.8387C37.4831 27.677 37.7024 27.5862 37.931 27.5862H38.7931C39.0217 27.5862 39.241 27.677 39.4027 27.8387C39.5644 28.0004 39.6552 28.2196 39.6552 28.4483C39.6552 28.6769 39.5644 28.8962 39.4027 29.0578C39.241 29.2195 39.0217 29.3103 38.7931 29.3103Z" fill="#5488E2"/>
<path d="M32.7586 29.3103H31.8966C31.6679 29.3103 31.4486 29.2195 31.287 29.0578C31.1253 28.8962 31.0345 28.6769 31.0345 28.4483C31.0345 28.2196 31.1253 28.0004 31.287 27.8387C31.4486 27.677 31.6679 27.5862 31.8966 27.5862H32.7586C32.9873 27.5862 33.2065 27.677 33.3682 27.8387C33.5299 28.0004 33.6207 28.2196 33.6207 28.4483C33.6207 28.6769 33.5299 28.8962 33.3682 29.0578C33.2065 29.2195 32.9873 29.3103 32.7586 29.3103Z" fill="#1EAD6F"/>
<path d="M22.4138 37.931H20.6896C20.461 37.931 20.2417 37.8402 20.0801 37.6785C19.9184 37.5169 19.8276 37.2976 19.8276 37.069C19.8276 36.8403 19.9184 36.6211 20.0801 36.4594C20.2417 36.2977 20.461 36.2069 20.6896 36.2069H22.4138C22.6424 36.2069 22.8617 36.2977 23.0234 36.4594C23.185 36.6211 23.2759 36.8403 23.2759 37.069C23.2759 37.2976 23.185 37.5169 23.0234 37.6785C22.8617 37.8402 22.6424 37.931 22.4138 37.931ZM29.3103 37.931H27.5862C27.3576 37.931 27.1383 37.8402 26.9766 37.6785C26.815 37.5169 26.7241 37.2976 26.7241 37.069C26.7241 36.8403 26.815 36.6211 26.9766 36.4594C27.1383 36.2977 27.3576 36.2069 27.5862 36.2069H29.3103C29.539 36.2069 29.7582 36.2977 29.9199 36.4594C30.0816 36.6211 30.1724 36.8403 30.1724 37.069C30.1724 37.2976 30.0816 37.5169 29.9199 37.6785C29.7582 37.8402 29.539 37.931 29.3103 37.931Z" fill="#232944"/>
</svg>

<svg xmlns="http://www.w3.org/2000/svg" width="50" height="50" fill="none" viewBox="0 0 50 50"><path fill="#e58b0a" d="M0 14.655V2.586A2.586 2.586 0 0 1 2.586 0H14.82a4.3 4.3 0 0 1 2.759 1l2.774 2.311a4.3 4.3 0 0 0 2.76 1h24.302A2.586 2.586 0 0 1 50 6.896v7.758z"/><path fill="#fff" d="M4.31 12.931v-2.586a2.586 2.586 0 0 1 2.587-2.586h36.207a2.586 2.586 0 0 1 2.586 2.586v2.586z"/><path fill="#ffb90b" d="M47.414 12.069H2.586A2.586 2.586 0 0 0 0 14.655v27.586a2.586 2.586 0 0 0 2.586 2.587h44.828A2.586 2.586 0 0 0 50 42.24V14.655a2.586 2.586 0 0 0-2.586-2.586"/><path fill="#394263" d="M16.608 40.517a1.72 1.72 0 0 0-1.558.986l-2.882 6.074A4.11 4.11 0 0 1 8.427 50a4.133 4.133 0 0 1-4.112-4.316c.474-10.9 2.723-18.13 4.569-21.872a7.12 7.12 0 0 1 6.388-3.984h19.456a7.12 7.12 0 0 1 6.386 3.984c1.848 3.741 4.097 10.972 4.569 21.872A4.133 4.133 0 0 1 41.573 50a4.11 4.11 0 0 1-3.741-2.423l-2.882-6.074a1.72 1.72 0 0 0-1.558-.986z"/><path fill="#232944" d="M18.104 27.586h-2.587V25a.863.863 0 0 0-1.724 0v2.586h-2.586a.862.862 0 0 0 0 1.724h2.586v2.587a.862.862 0 1 0 1.724 0V29.31h2.587a.862.862 0 1 0 0-1.724"/><path fill="#e23d4a" d="M35.345 32.759a.86.86 0 0 1-.862-.863v-.861a.862.862 0 1 1 1.724 0v.861a.86.86 0 0 1-.862.863"/><path fill="#ffb90b" d="M35.345 26.724a.86.86 0 0 1-.862-.862V25a.862.862 0 0 1 1.724 0v.862a.86.86 0 0 1-.862.862"/><path fill="#5488e2" d="M38.793 29.31h-.862a.862.862 0 1 1 0-1.724h.862a.862.862 0 0 1 0 1.724"/><path fill="#1ead6f" d="M32.759 29.31h-.862a.862.862 0 1 1 0-1.724h.862a.862.862 0 1 1 0 1.724"/><path fill="#232944" d="M22.414 37.931H20.69a.862.862 0 1 1 0-1.724h1.724a.862.862 0 0 1 0 1.724m6.896 0h-1.724a.862.862 0 0 1 0-1.724h1.724a.862.862 0 1 1 0 1.724"/></svg>
